X:1
T:Theme From Schindler's List
T:Schindler's List
T:Arranged by Paolo Beaupérin
T:John Williams
C:JOHN WILLIAMS
%%score 1 { ( 2 5 ) | ( 3 4 ) }
L:1/8
Q:1/4=68
M:4/4
K:Bb
V:1 treble nm="Violon" snm="Vln."
V:2 treble nm="Piano" snm="Pno."
V:5 treble 
V:3 bass 
V:4 bass 
V:1
"^\n""^Expressively"!mp! !fermata!D2 |[Q:1/4=60] dGdG edBD | BC!tenuto!Bc[Q:1/4=58] d4[Q:1/4=48] | %3
[Q:1/4=68] dG!<(!dG f!<)!edc | FEAc ed!tenuto!c!tenuto!B |"_dim." cEcE dcBc | d6 z D | %7
 cEcE"_cresc." dcBA | G4 A4 |"_dim." BCBC dc!tenuto!B!tenuto!A | %10
[Q:1/4=58] G3[Q:1/4=35] d g4[Q:1/4=50][Q:1/4=40] |[Q:1/4=68] z d/c/ ed A>B c2- | %12
 cB/c/ AG/^F/ A G3 | z d/c/ !tenuto!fe A>B c2- | %14
 c(C/D/ EE/F/[Q:1/4=58] GA/B/[Q:1/4=48] ^c/4)=E/4A/4c/4=e/4a/4^c'/4=e'/4 | %15
[Q:1/4=68]!mf! (!tenuto!d'!<(!!tenuto!g!tenuto!d'!tenuto!g)!<)! (!tenuto!e'!tenuto!d'!tenuto!b!tenuto!d) | %16
 (!tenuto!b!tenuto!c!tenuto!b!tenuto!c') d'4 | %17
!<(! (!tenuto!d'!tenuto!g!tenuto!d'!tenuto!g)!<)! (!tenuto!f'!tenuto!e'!tenuto!d'!tenuto!c') | %18
 (!tenuto!f!tenuto!e!tenuto!a!tenuto!c') (!tenuto!e'!tenuto!d'!>(!!tenuto!c'!tenuto!b)!>)! | %19
 (!tenuto!c'!tenuto!e!tenuto!c'!tenuto!e)"_cresc." (!tenuto!d'!tenuto!c'!tenuto!b!tenuto!c') | %20
 (d'2- d'/4b/4a/4g/4d/4B/4A/4G/4) (D3 !tenuto!B) | %21
 ((!tenuto!c!tenuto!E!tenuto!c!tenuto!E)) ((!tenuto!d!tenuto!cB/8c/8!tenuto!B3/4!tenuto!A)) | %22
 (GG,) (B,/D/E/G/) (!tenuto!A7/2 B/8A/8G/8A/8) | %23
"_dim." (!tenuto!B!tenuto!C!tenuto!B!tenuto!C)[Q:1/4=58] (!tenuto!d[Q:1/4=52]!tenuto!c[Q:1/4=48]!tenuto!B[Q:1/4=45]!tenuto!A) | %24
!p! (G3 A,) (B,/D/G/B/) (d/g/b/c'/) | %25
"_dim." (!tenuto!d'!tenuto!g!tenuto!d'!tenuto!g) (!tenuto!e'!tenuto!d'!tenuto!b!tenuto!d) | %26
[Q:1/4=68] (!tenuto!f'!tenuto!e'!tenuto!d'!tenuto!c') (b/c'/b/g/) (5:4:5(f/4e/4d/4c/4B/4(5:4:5A/4G/4F/4E/4D/4) | %27
 CB,A,E cBAC | edca c'ed^f' | g'8- | !fermata!g'6 z2 |] %31
V:2
 z2 | z8 | x4 x4 | z4 F2 F2 | G,2 A,2 _GF!tenuto!E!tenuto!D |"_dim." x x x x x x x x | x6 x x | %7
 x x x x"_cresc." x x x x | D2 C2 [EG]2 [D^F]2 |"_dim." [B,E]4 x x x x | z4 !arpeggio!B4 | z8 | %12
 z8 | z8 | z4 z2 !tenuto![=EA^c]2 | z4 G2 z2 | x4 F2 ^F2 |!<(! !arpeggio![DG]2 z2!<)! F2 F2 | %18
 G,2 A,2 _GF!>(!ED!>)! | G4"_cresc." x x x x | A2 G2 [A,C^F]E[B,D][A,D] | %21
 [EG]2 [EG]2 [CG]2 [CD^F]2 | x4 [CEG]2 [D^F]2 |"_dim." [B,E]4 [EG]2 [C^F]2 | [G,B,GBd]8 |!pp! x8 | %26
 B8 | [E,G,A,]8 | (G2 A2) x2 x2 | [DGBd]4 D-[DG]-[DGB]-[DGBd]- | !fermata![DGBdg]6 z2 |] %31
V:3
 !fermata!z2 | !tenuto!B,2 B,2 B,2 B,2 | E,2 G,A,"^rit." CB, A,2 | %3
"^a tempo" B,2 B,2 !arpeggio![B,E]2 [B,E]2 | [F,,E,]4 F,2 !tenuto!F,2 | [A,,E,G,]4 [D,,A,,D,]4 | %6
 !arpeggio![D,B,]4 [D,B,]4 | !arpeggio![A,,E,G,]4 C2 C2 | ([E,,B,,E,]4 [A,,G,]2 [D,,^F,]2) | %9
 !arpeggio![C,,G,,E,]4 C2 !tenuto!C2 |"^rall." G,,D,B,D [G,D]4 | %11
"^a tempo, moving along" z [B,D]2 [B,D] z [A,CE]2 [A,CE] | z [A,CE]2 [A,CE] z [B,D]2 [B,D] | %13
 z [A,CE] !tenuto![G,A,CE]2 z [A,CE]2 [A,CE] | z E,2 G,-"^rit." [G,C]2 !tenuto![=E,^C]2 | %15
"^a tempo" !arpeggio![G,,D,B,]4 !arpeggio!!tenuto![G,,D,B,]2 [D,B,]2 | x8 | %17
 [G,,D,B,]2 [D,A,]G,"^passionately" [B,E]2 [B,E]2 | [F,,E,]4 [F,C]B,^F,G, | [A,,E,G,]4 [A,C]2 C2 | %20
 [G,,D,B,]4 D,4 | [A,,G,]3 A,, [D,G,]2 D,2 | E,,/B,,/D,/E,/ G,2 [A,,G,]2 [D,,^F,]2 | %23
 !arpeggio![C,,G,,E,]4"^rall." [A,,G,]2 [D,,D,]2 | G,,D,G,D x4 | %25
!pp! !arpeggio![G,,D,]4 !arpeggio![G,,D,]4 | [G,B,GB]4 z4 | (E,G, A,2) z4 | %28
 G,2 ^F,2 [E,C]2 [D,_G,C]2 | %29
 G,,-[G,,D,]-[G,,D,G,]-[G,,D,G,B,]- [G,,D,G,B,]-[G,,D,G,B,]-[G,,D,G,B,]-[G,,D,G,B,]- | %30
 !fermata![G,,D,G,B,]6 z2 |] %31
V:4
 x2 | !arpeggio![G,,D,]8 | [C,,G,,]2 [F,,E,]2 !arpeggio![B,,F,]2 D,2 | !arpeggio![G,,D,]4 C,4 | %4
 x4 B,,4 | x8 | G,,8 | x4 D,4 | x8 | x4 D,4 | x8 | G,4 G,4 | G,4 G,4 | G,,4 G,4 | A,,4- A,,2 x2 | %15
 x8 | [C,,G,,E,]2 [F,,C,G,]A, !arpeggio![B,,F,C]B, !tenuto![D,A,]2 | x4 C,4 | x4 B,,2 B,,2 | %19
 x4 D,4 | x4 G,,2 F,,2 | x8 | E,,4 x4 | x8 | x8 | x8 | C,8 | x8 | x8 | x8 | x8 |] %31
V:5
 x2 | x8 | z4 F2 ^F2 | x8 | x8 | C4 [CG]2 [C^F]2 | A2 G2 ^F2 G2 | x4 G2 ^F2 | G,4 A,4 | %9
 x4 G2 !tenuto!^F2 | x8 | x8 | x8 | x8 | x8 | x8 | !arpeggio![B,E]2 [B,E]C D4 | x8 | x8 | %19
 C4 G2 ^F2 | D4 x4 | x8 | [G,D]4 x4 | x8 | x4 GBdg | !arpeggio![DGBdgb]4 !arpeggio![DGBdgb]4 | %26
 F2 E6 | x8 | [CE]4 [EGc]2 [_GAd]2 | x8 | x8 |] %31

